!!!OTL: SCHIFFMANN LAT'T SCHIFFKEN SINKEN
!!!ARE: Europa, Mitteleuropa, Deutschland, Schoenebeck a.d. Elbe
!!!SCT: E0078C
!!!YEM: Copyright 1995, estate of Helmut Schaffrath.
**kern
*ICvox
*Ivox
*M4/4
*k[b-]
*F:
{8f
8a
=1
4cc
4cc
4cc
4dd
=2
4.cc
8a
4f}
{4a
=3
2g
4a
4a
=4
4.f
8e
4d}
{4e
=5
4f
4e
4f
4e
=6
2d
4r}
{4a
=7
4a
4b-
4a
4g
=8
4f
4e
4d}
{4a
=9
4a
4g
4a
4b-
=10
4.cc
8dd
4cc
4a
=11
2cc
4a}
==
!!!AGN: erzaehlendes Volks - Lied, Sage, Liebe, Ballade ?
!!!ONB: ESAC (Essen Associative Code) Database: ERK1
!!!AMT: simple quadruple
!!!AIN: vox
!!!EED: Helmut Schaffrath
!!!EEV: 1.0
*-
